assets/img/sass.svg

<svg fill="none" height="50" viewBox="0 0 50 50" width="50" xmlns="http://www.w3.org/2000/svg" xmlns:xlink="http://www.w3.org/1999/xlink"><clipPath id="a"><path d="m11 14h29v22h-29z"/></clipPath><rect fill="#81cddd" height="49.7778" rx="11" width="49.7778" x=".111115"/><g clip-path="url(#a)"><path d="m35.956 26.6453c-1.0111.0054-1.8899.2519-2.6258.6162-.2699-.5411-.5399-1.0234-.5876-1.377-.0529-.4126-.1164-.6644-.0529-1.1573.0635-.493.3494-1.1949.3441-1.2484-.0053-.0536-.0635-.3054-.6459-.3108-.5823-.0054-1.0852.1125-1.1435.2679-.0582.1554-.1694.509-.2435.8734-.1006.5358-1.1646 2.4486-1.7734 3.4505-.1959-.3911-.3653-.734-.4024-1.0073-.0529-.4126-.1164-.6644-.0529-1.1573.0635-.493.3494-1.1949.3441-1.2484-.0053-.0536-.0635-.3054-.6459-.3108-.5823-.0054-1.0852.1125-1.1434.2679-.0583.1554-.1218.5197-.2436.8734-.1217.3536-1.5352 3.547-1.9058 4.3721-.1905.4233-.3547.7608-.4711.9912 0 0-.0053.0161-.0212.0429-.1006.1982-.1588.3054-.1588.3054v.0054c-.0794.1446-.1641.2786-.2065.2786-.0317 0-.09-.3858.0106-.9109.2118-1.1091.7147-2.8344.7094-2.8933 0-.0322.0953-.3322-.3282-.4876-.413-.1554-.5612.1018-.5982.1018-.0371 0-.0636.0911-.0636.0911s.4606-1.9396-.8788-1.9396c-.8364 0-1.9905.9269-2.5622 1.7628-.36.1982-1.1276.6215-1.9482 1.0769-.3123.1768-.6352.3537-.937.5198-.0212-.0215-.0423-.0483-.0635-.0697-1.6199-1.7521-4.6163-2.9898-4.4892-5.3419.0476-.8573.3388-3.1077 5.7544-5.8403 4.4575-2.2235 8.0044-1.6074 8.6185-.2411.8788 1.9503-1.9005 5.5724-6.5062 6.0974-1.7576.1983-2.6787-.4875-2.9116-.7447-.2436-.2679-.2806-.284-.3706-.2304-.1482.0804-.053.3215 0 .4608.1376.3643.7041 1.0073 1.6623 1.3234.847.2786 2.9063.434 5.3998-.5412 2.7898-1.093 4.9709-4.131 4.3304-6.676-.6406-2.5826-4.8757-3.4345-8.8832-1.9932-2.3823.8573-4.9657 2.2075-6.8238 3.9649-2.2076 2.0896-2.557 3.906-2.4141 4.6668.5135 2.7005 4.1928 4.4579 5.6645 5.7599-.0741.0429-.1429.0804-.2012.1125-.7358.3697-3.5416 1.8539-4.2404 3.4238-.7941 1.7789.1271 3.0541.7359 3.2255 1.8899.5305 3.8328-.4233 4.8757-1.9985 1.0429-1.5753.9158-3.622.4341-4.5597-.0053-.0107-.0106-.0214-.0212-.0321.1906-.1126.3864-.2304.577-.343.3759-.225.7465-.434 1.0641-.6054-.18.4983-.3123 1.093-.3759 1.9503-.0794 1.0073.3283 2.3147.8629 2.829.2383.2251.5188.2304.6988.2304.6247 0 .9053-.5251 1.2176-1.1466.3812-.7608.7253-1.6449.7253-1.6449s-.4288 2.3897.7358 2.3897c.4236 0 .8524-.5573 1.0429-.8412v.0053s.0106-.016.0318-.0535c.0424-.0697.0688-.1126.0688-.1126s0-.0053 0-.0107c.1694-.3.5506-.9805 1.117-2.111.7306-1.4574 1.4347-3.2791 1.4347-3.2791s.0635.4447.2806 1.1841c.127.434.3917.9108.6035 1.3716-.1694.2411-.2753.3751-.2753.3751s0 0 .0053.0053c-.1377.1822-.2859.3805-.45.5734-.577.6965-1.2652 1.4948-1.3605 1.7252-.1112.2733-.0847.4715.127.6323.1535.1179.4288.1339.7094.1179.5188-.0376.8841-.1661 1.0641-.2465.2806-.1018.6088-.2572.9158-.4876.5665-.4233.9106-1.0287.8788-1.8271-.0159-.4393-.1588-.8787-.3335-1.2913.0529-.075.1006-.15.1535-.225.8947-1.3234 1.5882-2.7754 1.5882-2.7754s.0635.4447.2806 1.1841c.1058.375.3229.7822.5135 1.1787-.8418.6912-1.3606 1.4949-1.5458 2.02-.3336.9752-.0742 1.4145.4182 1.5163.2223.0483.54-.0589.7729-.1607.2964-.0965.6458-.2626.9794-.509.5664-.4233 1.1117-1.0127 1.0799-1.811-.0159-.3644-.1112-.7234-.2435-1.0716.7147-.3001 1.6358-.4662 2.8111-.3269 2.5199.3001 3.0175 1.8914 2.9222 2.5612-.0953.6697-.6247 1.0341-.7994 1.1466s-.2329.15-.217.2304c.0211.1178.1058.1125.2541.0911.2064-.0376 1.3234-.5412 1.3711-1.7735.0794-1.5753-1.4029-3.2952-4.0234-3.2792zm-19.4392 6.6333c-.8364.9215-2.0011 1.2698-2.504.9751-.54-.3161-.3282-1.677.6988-2.6522.6247-.5947 1.4293-1.1466 1.964-1.4842.1218-.075.3018-.1821.5188-.3161.0371-.0214.0583-.0321.0583-.0321.0423-.0268.0847-.0536.127-.0804.3759 1.3931.0159 2.6201-.8629 3.5899zm6.088-4.19c-.2912.718-.9 2.5558-1.2705 2.454-.3177-.0858-.5135-1.4788-.0636-2.8558.2277-.6912.7094-1.5164.99-1.8378.4553-.5144.9582-.6859 1.08-.4769.1535.2732-.5559 2.2664-.7359 2.7165zm5.0239 2.4325c-.1217.0643-.2382.1072-.2912.0751-.037-.0215.053-.1072.053-.1072s.63-.6858.8788-.9966c.1429-.1822.3123-.3965.4923-.6376v.0697c0 .8197-.7835 1.3716-1.1329 1.5966zm3.8751-.8947c-.0899-.0643-.0741-.2787.2277-.9484.1165-.2626.3917-.7019.8629-1.1252.0529.1715.09.3376.0847.4929-.0053 1.0341-.7359 1.4199-1.1753 1.5807z" fill="#fff"/></g></svg>

<svg width="50" height="50" viewBox="0 0 50 50" fill="none" xmlns="http://www.w3.org/2000/svg">
<rect x="0.111115" width="49.7778" height="49.7778" rx="11" fill="#81CDDD"/>
<g clip-path="url(#clip0)">
<path d="M35.956 26.6453C34.9449 26.6507 34.0661 26.8972 33.3302 27.2615C33.0603 26.7204 32.7903 26.2381 32.7426 25.8845C32.6897 25.4719 32.6262 25.2201 32.6897 24.7272C32.7532 24.2342 33.0391 23.5323 33.0338 23.4788C33.0285 23.4252 32.9703 23.1734 32.3879 23.168C31.8056 23.1626 31.3027 23.2805 31.2444 23.4359C31.1862 23.5913 31.075 23.9449 31.0009 24.3093C30.9003 24.8451 29.8363 26.7579 29.2275 27.7598C29.0316 27.3687 28.8622 27.0258 28.8251 26.7525C28.7722 26.3399 28.7087 26.0881 28.7722 25.5952C28.8357 25.1022 29.1216 24.4003 29.1163 24.3468C29.111 24.2932 29.0528 24.0414 28.4704 24.036C27.8881 24.0306 27.3852 24.1485 27.327 24.3039C27.2687 24.4593 27.2052 24.8236 27.0834 25.1773C26.9617 25.5309 25.5482 28.7243 25.1776 29.5494C24.9871 29.9727 24.8229 30.3102 24.7065 30.5406C24.7065 30.5406 24.7012 30.5567 24.6853 30.5835C24.5847 30.7817 24.5265 30.8889 24.5265 30.8889C24.5265 30.8889 24.5265 30.8889 24.5265 30.8943C24.4471 31.0389 24.3624 31.1729 24.32 31.1729C24.2883 31.1729 24.23 30.7871 24.3306 30.262C24.5424 29.1529 25.0453 27.4276 25.04 27.3687C25.04 27.3365 25.1353 27.0365 24.7118 26.8811C24.2988 26.7257 24.1506 26.9829 24.1136 26.9829C24.0765 26.9829 24.05 27.074 24.05 27.074C24.05 27.074 24.5106 25.1344 23.1712 25.1344C22.3348 25.1344 21.1807 26.0613 20.609 26.8972C20.249 27.0954 19.4814 27.5187 18.6608 27.9741C18.3485 28.1509 18.0256 28.3278 17.7238 28.4939C17.7026 28.4724 17.6815 28.4456 17.6603 28.4242C16.0404 26.6721 13.044 25.4344 13.1711 23.0823C13.2187 22.225 13.5099 19.9746 18.9255 17.242C23.383 15.0185 26.9299 15.6346 27.544 17.0009C28.4228 18.9512 25.6435 22.5733 21.0378 23.0983C19.2802 23.2966 18.3591 22.6108 18.1262 22.3536C17.8826 22.0857 17.8456 22.0696 17.7556 22.1232C17.6074 22.2036 17.7026 22.4447 17.7556 22.584C17.8932 22.9483 18.4597 23.5913 19.4179 23.9074C20.2649 24.186 22.3242 24.3414 24.8177 23.3662C27.6075 22.2732 29.7886 19.2352 29.1481 16.6902C28.5075 14.1076 24.2724 13.2557 20.2649 14.697C17.8826 15.5543 15.2992 16.9045 13.4411 18.6619C11.2335 20.7515 10.8841 22.5679 11.027 23.3287C11.5405 26.0292 15.2198 27.7866 16.6915 29.0886C16.6174 29.1315 16.5486 29.169 16.4903 29.2011C15.7545 29.5708 12.9487 31.055 12.2499 32.6249C11.4558 34.4038 12.377 35.679 12.9858 35.8504C14.8757 36.3809 16.8186 35.4271 17.8615 33.8519C18.9044 32.2766 18.7773 30.2299 18.2956 29.2922C18.2903 29.2815 18.285 29.2708 18.2744 29.2601C18.465 29.1475 18.6608 29.0297 18.8514 28.9171C19.2273 28.6921 19.5979 28.4831 19.9155 28.3117C19.7355 28.81 19.6032 29.4047 19.5396 30.262C19.4602 31.2693 19.8679 32.5767 20.4025 33.091C20.6408 33.3161 20.9213 33.3214 21.1013 33.3214C21.726 33.3214 22.0066 32.7963 22.3189 32.1748C22.7001 31.414 23.0442 30.5299 23.0442 30.5299C23.0442 30.5299 22.6154 32.9196 23.78 32.9196C24.2036 32.9196 24.6324 32.3623 24.8229 32.0784C24.8229 32.0837 24.8229 32.0837 24.8229 32.0837C24.8229 32.0837 24.8335 32.0677 24.8547 32.0302C24.8971 31.9605 24.9235 31.9176 24.9235 31.9176C24.9235 31.9176 24.9235 31.9123 24.9235 31.9069C25.0929 31.6069 25.4741 30.9264 26.0405 29.7959C26.7711 28.3385 27.4752 26.5168 27.4752 26.5168C27.4752 26.5168 27.5387 26.9615 27.7558 27.7009C27.8828 28.1349 28.1475 28.6117 28.3593 29.0725C28.1899 29.3136 28.084 29.4476 28.084 29.4476C28.084 29.4476 28.084 29.4476 28.0893 29.4529C27.9516 29.6351 27.8034 29.8334 27.6393 30.0263C27.0623 30.7228 26.3741 31.5211 26.2788 31.7515C26.1676 32.0248 26.1941 32.223 26.4058 32.3838C26.5593 32.5017 26.8346 32.5177 27.1152 32.5017C27.634 32.4641 27.9993 32.3356 28.1793 32.2552C28.4599 32.1534 28.7881 31.998 29.0951 31.7676C29.6616 31.3443 30.0057 30.7389 29.9739 29.9405C29.958 29.5012 29.8151 29.0618 29.6404 28.6492C29.6933 28.5742 29.741 28.4992 29.7939 28.4242C30.6886 27.1008 31.3821 25.6488 31.3821 25.6488C31.3821 25.6488 31.4456 26.0935 31.6627 26.8329C31.7685 27.2079 31.9856 27.6151 32.1762 28.0116C31.3344 28.7028 30.8156 29.5065 30.6304 30.0316C30.2968 31.0068 30.5562 31.4461 31.0486 31.5479C31.2709 31.5962 31.5886 31.489 31.8215 31.3872C32.1179 31.2907 32.4673 31.1246 32.8009 30.8782C33.3673 30.4549 33.9126 29.8655 33.8808 29.0672C33.8649 28.7028 33.7696 28.3438 33.6373 27.9956C34.352 27.6955 35.2731 27.5294 36.4484 27.6687C38.9683 27.9688 39.4659 29.5601 39.3706 30.2299C39.2753 30.8996 38.7459 31.264 38.5712 31.3765C38.3965 31.489 38.3383 31.5265 38.3542 31.6069C38.3753 31.7247 38.46 31.7194 38.6083 31.698C38.8147 31.6604 39.9317 31.1568 39.9794 29.9245C40.0588 28.3492 38.5765 26.6293 35.956 26.6453ZM16.5168 33.2786C15.6804 34.2001 14.5157 34.5484 14.0128 34.2537C13.4728 33.9376 13.6846 32.5767 14.7116 31.6015C15.3363 31.0068 16.1409 30.4549 16.6756 30.1173C16.7974 30.0423 16.9774 29.9352 17.1944 29.8012C17.2315 29.7798 17.2527 29.7691 17.2527 29.7691C17.295 29.7423 17.3374 29.7155 17.3797 29.6887C17.7556 31.0818 17.3956 32.3088 16.5168 33.2786ZM22.6048 29.0886C22.3136 29.8066 21.7048 31.6444 21.3343 31.5426C21.0166 31.4568 20.8208 30.0638 21.2707 28.6868C21.4984 27.9956 21.9801 27.1704 22.2607 26.849C22.716 26.3346 23.2189 26.1631 23.3407 26.3721C23.4942 26.6453 22.7848 28.6385 22.6048 29.0886ZM27.6287 31.5211C27.507 31.5854 27.3905 31.6283 27.3375 31.5962C27.3005 31.5747 27.3905 31.489 27.3905 31.489C27.3905 31.489 28.0205 30.8032 28.2693 30.4924C28.4122 30.3102 28.5816 30.0959 28.7616 29.8548C28.7616 29.8762 28.7616 29.903 28.7616 29.9245C28.7616 30.7442 27.9781 31.2961 27.6287 31.5211ZM31.5038 30.6264C31.4139 30.5621 31.4297 30.3477 31.7315 29.678C31.848 29.4154 32.1232 28.9761 32.5944 28.5528C32.6473 28.7243 32.6844 28.8904 32.6791 29.0457C32.6738 30.0798 31.9432 30.4656 31.5038 30.6264Z" fill="white"/>
</g>
<defs>
<clipPath id="clip0">
<rect width="29" height="22" fill="white" transform="translate(11 14)"/>
</clipPath>
</defs>
</svg>
